X:1
T:Title
%%score { ( 1 4 5 ) | ( 2 3 ) }
L:1/8
Q:1/4=100
M:2/2
K:Ab
V:1 treble nm="Grand Piano"
V:4 treble 
V:5 treble 
V:2 treble 
V:3 treble 
V:1
 A2 GA B2 E2 | e8 | A2 GA B2 E2 | e8 | A2 GA B2 A2 | [Ad]4 [A=d]4 | [Ae]2 [Ac][CA] [DGB]2 [DGB]2 | %7
w: J.~H.~Fillmore * * * *|||||||
 A8 | A2 GA B2 E2 | e8 | A2 GA B2 E2 | e8 | A2 GA B2 A2 | [Ad]4 [A=d]4 | %14
w: |||||||
 [Ae]2 [Ac][CA] [DGB]2 [DGB]2 | A8 | [CE]2 [CE]2 [CE]2 [CE]2 | A4 z4 | [C-F]4 C4 | z2 .G6 | %20
w: ||||||
 z2 .A6 | z2 .B6 | z2 .c6 | e2 =d2 c2 d2 | e2 G2 G2 =A2 | z4 B4 | [B,EGB]2 [G,E]6 | [C-A]4 C4 | %28
w: ||||||||
 [C-F]4 C4 | z2 .G6 | z2 .A6 | z2 .B6 | z2 .c6 | e2 =d2 c2 d2 | z2 .e6 | e4 z4 | [Ge]8 | %37
w: |||||||||
 A2 GA B2 E2 | e8 | A2 GA B2 E2 | e8 | A2 GA B2 A2 | [Ad]4 [A=d]4 | [Ae]2 [Ac]A [GB]2 [GB]2 | A8 | %45
w: ||||||||
 A2 GA B2 E2 | e8 | A2 GA B2 E2 | e8 | A2 GA B2 A2 | [Ad]4 [A=d]4 | [Ae]2 [Ac][CA] [DGB]2 [DGB]2 | %52
w: |||||||
 [CA]8 | [CA]2 AA A2 A2 | [Fd]8 | [Ec]2 AA A2 A2 | [Fd]8 | [Ec]2 AA A2 A2 | [Af]4 [Af]4 | %59
w: |||||||
 [Ae]6 [Ac]A | [GB]4 [GB]4 | [Ac]8 | [Af]4 [Af]4 | [Ae]6 [Ac]A | [Ge]4 [Ge]4 | A8 |] %66
w: |||||||
V:2
 [CE]4 [DE]2 D2 | [CA]2 B,C D2 D2 | [CE]4 [DE]2 D2 | [CA]2 B,C D2 D2 | [A,CE]4 [_G,CE]4 | %5
 [F,D]4 [=E,_C]4 | [E,C]2 [E,A,]E, E,2 E,2 | A,2 [A,,A,]2 [A,,A,]2 [A,,A,]2 | [CE]4 [DE]2 D2 | %9
 [CA]2 B,C D2 D2 | [CE]4 [DE]2 D2 | [CA]2 B,C D2 D2 | [A,CE]4 [_G,CE]4 | [F,D]4 [=E,_C]4 | %14
 [E,C]2 [E,A,]E, E,2 E,2 | A,2 [A,,A,]2 [A,,A,]2 [A,,A,]2 | [A,,A,]2 [A,,A,]2 [A,,A,]2 [A,,A,]2 | %17
 .[A,,A,]3 G A,,2 A,,2 | A,,2 A,,2 [A,,A,]2 [A,,A,]2 | [B,,E,]2 [B,,E,]2 B,,2 [B,,E,]2 | %20
 [C,A,]2 [C,A,]2 C,2 [C,A,]2 | E2- [E,G,E-]2 [E,E-]2 [E,B,E]2 | E2- [A,E-]2 E2- [A,CE]2 | %23
 [B,FA]2 [B,FA]2 [B,FA]2 [B,FA]2 | [CEG]2 [CE]2 [CE]2 [_CE_G]2 | %25
 [B,EG]2 [B,EG]2[K:bass] B,,2 B,,2 | E,2 E,6 | .A,,3 G A,,2 A,,2 | A,,2 A,,2 [A,,A,]2 [A,,A,]2 | %29
 [B,,E,]2 [B,,E,]2 B,,2 [B,,E,]2 | [C,A,]2 [C,A,]2 C,2 [C,A,]2 | E2- [E,G,E-]2 [E,E-]2 [E,B,E]2 | %32
 E2- [A,E-]2 E2- [A,CE]2 | [B,FA]2 [B,FA]2 [B,FA]2 [B,FA]2 | [CG]2 [CG]2 C2 [A,CA]2 | %35
 .[B,G]4[K:bass] [B,,B,]2 [B,,B,]2 | [E,B,]8 | [CE]4 [DE]2[K:treble] D2 | [CA]2 B,C D2 D2 | %39
 [CE]4 [DE]2 D2 | [CA]2 B,C D2 D2 | [A,CE]4 [_G,CE]4 | [F,D]4 [=E,_C]4 | %43
 [E,C]2 [E,A,][E,C] [E,D]2 [E,D]2 | [A,C]8 | [CE]4 [DE]2 D2 | [CA]2 B,C D2 D2 | [CE]4 [DE]2 D2 | %48
 [CA]2 B,C D2 D2 | [A,CE]4 [_G,CE]4 | [F,D]4 [=E,_C]4 | [E,C]2 [E,A,]E, E,2 E,2 | A,8 | %53
 A,2 A,A, A,2 A,2 | [D,A,]8 | [A,,A,]2 A,A, A,2 A,2 | [D,A,]8 | [A,,A,]2 A,A, A,2 A,2 | %58
 [=D,_C]4 [D,C]4 | [E,C]6 [E,E][E,C] | [E,E]4 [E,E]4 | [A,E]8 | [=D,_C]4 [D,C]4 | %63
 [E,C]6 [E,E][E,C] | [E,B,]4 [E,B,]4 | [A,C]8 |] %66
V:3
 A,8 | A,8 | A,8 | A,8 | x8 | x8 | x8 | x8 | A,8 | A,8 | A,8 | A,8 | x8 | x8 | x8 | x8 | x8 | %17
 z2 A,,2 z4 | x8 | x8 | x8 | .[E,A,]4 z4 | .[A,B,]4 z4 | x8 | x8 | x4[K:bass] x4 | x8 | %27
 z2 A,,2 z4 | x8 | x8 | x8 | .[E,A,]4 z4 | .[A,B,]4 z4 | x8 | x8 | x4[K:bass] x4 | x8 | %37
 A,8[K:treble] | A,8 | A,8 | A,8 | x8 | x8 | x8 | x8 | A,8 | A,8 | A,8 | A,8 | x8 | x8 | x8 | x8 | %53
 x8 | x8 | x8 | x8 | x8 | x8 | x8 | x8 | x8 | x8 | x8 | x8 | x8 |] %66
V:4
 x8 | z2 GA B2 E2 | x8 | z2 GA B2 E2 | x8 | x8 | x8 | C2 [CE]2 [CE]2 [CE]2 | x8 | z2 GA B2 E2 | %10
 x8 | z2 GA B2 E2 | x8 | x8 | x8 | C2 [CE]2 [CE]2 [CE]2 | x8 | C2- [A,C-]2 [A,C-F]2 [A,CE]2 | %18
 A,2 A,2 E2 A2 | .A4 E,2 B2 | .B4 A,2 c2 | .c4 G,2 d2 | .d4 A,2 e2 | x8 | x8 | %25
 B2 B2 [B,FA]2 [B,FA]2 | x8 | A,2 A,2 [A,F]2 [A,E]2 | A,2 A,2 E2 A2 | .A4 E,2 B2 | .B4 A,2 c2 | %31
 .c4 G,2 d2 | .d4 A,2 e2 | x8 | .f4 G2 e2 | z2 B,2 [A=d]4 | x8 | x8 | z2 GA B2 E2 | x8 | %40
 z2 GA B2 E2 | x8 | x8 | x8 | x8 | x8 | z2 GA B2 E2 | x8 | z2 GA B2 E2 | x8 | x8 | x8 | x8 | x8 | %54
 x8 | x8 | x8 | x8 | x8 | x8 | x8 | x8 | x8 | x8 | x8 | x8 |] %66
V:5
 x8 | x8 | x8 | x8 | x8 | x8 | x8 | x8 | x8 | x8 | x8 | x8 | x8 | x8 | x8 | x8 | x8 | x8 | x8 | %19
 D8 | E8 | x8 | x8 | x8 | x8 | x8 | x8 | x8 | x8 | D8 | E8 | x8 | x8 | x8 | x8 | x8 | x8 | x8 | %38
 x8 | x8 | x8 | x8 | x8 | x8 | x8 | x8 | x8 | x8 | x8 | x8 | x8 | x8 | x8 | x8 | x8 | x8 | x8 | %57
 x8 | x8 | x8 | x8 | x8 | x8 | x8 | x8 | x8 |] %66

